icons/guidance-icons/manoeuvers-sdk/right-roundabout-exit12.svg

<svg width="80" height="80" viewBox="0 0 80 80" fill="none" xmlns="http://www.w3.org/2000/svg">
<path d="M65.7099 30C65.7899 29.18 65.8399 28.35 65.8399 27.5C65.8399 26.65 65.8399 25.83 65.7099 25H60.3999C60.209 23.0557 59.7374 21.1492 58.9999 19.34L63.4899 16.74C62.7993 15.224 61.9655 13.7775 60.9999 12.42L56.5599 15C55.392 13.3941 53.9975 11.9659 52.4199 10.76L54.9299 6.40004C53.5733 5.42746 52.1267 4.58696 50.6099 3.89004L48.1099 8.21004C46.2725 7.41658 44.3283 6.89769 42.3399 6.67004V1.67004C41.5099 1.59004 40.6799 1.54004 39.8399 1.54004C38.9999 1.54004 38.1599 1.59004 37.3399 1.67004V6.69004C35.3688 6.94839 33.4456 7.49068 31.6299 8.30004L29.0699 3.86004C27.551 4.55505 26.1012 5.3921 24.7399 6.36004L27.3599 10.9C25.8344 12.1036 24.4876 13.5177 23.3599 15.1L18.7099 12.42C17.7373 13.7767 16.8968 15.2233 16.1999 16.74L20.9599 19.49C20.2562 21.2557 19.7986 23.1097 19.5999 25H13.9999C13.9199 25.83 13.8799 26.66 13.8799 27.5C13.8799 28.34 13.8799 29.18 13.9999 30H19.7899C20.2369 33.0591 21.3723 35.9769 23.1106 38.5335C24.849 41.0901 27.1448 43.2188 29.8253 44.7593C32.5057 46.2997 35.5008 47.2118 38.5849 47.4267C41.669 47.6417 44.7617 47.1538 47.6299 46L50.6299 51.16C52.1467 50.4631 53.5933 49.6226 54.9499 48.65L51.9999 43.58C53.4994 42.489 54.8448 41.2008 55.9999 39.75L60.9999 42.61C61.9747 41.2513 62.8153 39.8012 63.5099 38.28L58.6599 35.48C59.4478 33.7383 59.9832 31.893 60.2499 30H65.7099ZM39.9999 42.5C36.9343 42.5 33.9375 41.591 31.3885 39.8878C28.8396 38.1847 26.8529 35.7639 25.6797 32.9316C24.5066 30.0994 24.1996 26.9828 24.7977 23.9761C25.3958 20.9694 26.872 18.2076 29.0397 16.0399C31.2074 13.8722 33.9693 12.3959 36.976 11.7979C39.9827 11.1998 43.0992 11.5067 45.9315 12.6799C48.7637 13.8531 51.1845 15.8397 52.8877 18.3887C54.5908 20.9377 55.4999 23.9344 55.4999 27C55.4972 31.1101 53.8634 35.051 50.9571 37.9573C48.0509 40.8635 44.1099 42.4974 39.9999 42.5Z" fill="#C3CDDE" fill-opacity="0.35"/>
<path d="M37.09 36.0001H33.47V22.1201L29.62 24.4801L28 22.0001L33.83 18.4901H37.08L37.09 36.0001ZM50.74 23.1001C50.74 25.9401 49.2 28.0401 43.74 33.1001H51.1L50.71 36.0001H39.56V33.3201C45.51 27.3701 46.94 25.7601 46.94 23.4201C46.9668 23.0981 46.9236 22.7741 46.8133 22.4704C46.7031 22.1667 46.5285 21.8904 46.3015 21.6605C46.0744 21.4306 45.8003 21.2525 45.498 21.1386C45.1957 21.0246 44.8723 20.9773 44.55 21.0001C43.8909 21.0111 43.2448 21.1849 42.6691 21.5059C42.0933 21.8269 41.6059 22.2852 41.25 22.8401L39 21.0801C39.6616 20.1503 40.5405 19.3964 41.5601 18.884C42.5797 18.3715 43.7091 18.1162 44.85 18.1401C48.63 18.1401 50.74 20.3701 50.74 23.1001ZM60.87 24.6201C60.5236 21.6574 59.5501 18.8026 58.0143 16.2456C56.4784 13.6886 54.4154 11.4881 51.9627 9.79067C49.51 8.09322 46.7239 6.93774 43.7897 6.40117C40.8556 5.8646 37.8408 5.95924 34.9461 6.6788C32.0514 7.39836 29.3432 8.72632 27.0018 10.5743C24.6604 12.4222 22.7395 14.7478 21.3671 17.3961C19.9946 20.0444 19.2021 22.9547 19.0422 25.9332C18.8824 28.9117 19.3589 31.8901 20.44 34.6701C20.771 35.5584 20.8366 36.5239 20.6289 37.4489C20.4212 38.3738 19.9491 39.2185 19.27 39.8801L13 46.1701L12.77 45.9401L13.13 33.3601L7 33.0001V56.0001H30L29.64 49.8901L17.39 50.2401L23.51 44.1201C25.0118 42.6299 26.0471 40.7346 26.4893 38.6657C26.9315 36.5968 26.7615 34.4439 26 32.4701C24.9053 29.6712 24.6766 26.6081 25.3434 23.6777C26.0103 20.7473 27.5421 18.0848 29.7402 16.0353C31.9382 13.9858 34.7013 12.6438 37.6711 12.1833C40.6409 11.7228 43.6806 12.1651 46.3961 13.4527C49.1116 14.7403 51.3777 16.8139 52.9007 19.4047C54.4237 21.9955 55.1334 24.9841 54.9376 27.9831C54.7419 30.982 53.6499 33.853 51.8031 36.2239C49.9562 38.5948 47.4398 40.3563 44.58 41.2801C42.3749 42.0014 40.4543 43.4015 39.0929 45.2802C37.7314 47.1589 36.9989 49.4199 37 51.7401V80.0001H43V51.7401C43.0029 50.6874 43.3379 49.6625 43.9574 48.8114C44.5769 47.9603 45.4492 47.3264 46.45 47.0001C51.056 45.4896 55.0026 42.4415 57.628 38.3667C60.2534 34.292 61.3981 29.4385 60.87 24.6201Z" fill="white"/>
</svg>

<svg xmlns="http://www.w3.org/2000/svg" viewBox="0 0 80 80"><path d="M65.71,30c.08-.82.13-1.65.13-2.5s0-1.67-.13-2.5H60.4A20.23,20.23,0,0,0,59,19.34l4.49-2.6A26.16,26.16,0,0,0,61,12.42L56.56,15a20.55,20.55,0,0,0-4.14-4.24l2.51-4.36a26.16,26.16,0,0,0-4.32-2.51l-2.5,4.32a20.41,20.41,0,0,0-5.77-1.54v-5c-.83-.08-1.66-.13-2.5-.13s-1.68.05-2.5.13V6.69A20.6,20.6,0,0,0,31.63,8.3L29.07,3.86a26.5,26.5,0,0,0-4.33,2.5l2.62,4.54a20.52,20.52,0,0,0-4,4.2l-4.65-2.68a26.16,26.16,0,0,0-2.51,4.32l4.76,2.75A20.74,20.74,0,0,0,19.6,25H14c-.08.83-.12,1.66-.12,2.5s0,1.68.12,2.5h5.79A20.43,20.43,0,0,0,47.63,46l3,5.16a26.16,26.16,0,0,0,4.32-2.51L52,43.58a20.62,20.62,0,0,0,4-3.83L61,42.61a25.84,25.84,0,0,0,2.51-4.33l-4.85-2.8A20.1,20.1,0,0,0,60.25,30ZM40,42.5A15.5,15.5,0,1,1,55.5,27,15.51,15.51,0,0,1,40,42.5Z" style="fill:#d1def4;opacity:0.35000000000000003"/><path d="M37.09,36H33.47V22.12l-3.85,2.36L28,22l5.83-3.51h3.25ZM50.74,23.1c0,2.84-1.54,4.94-7,10h7.36L50.71,36H39.56V33.32c5.95-5.95,7.38-7.56,7.38-9.9A2.24,2.24,0,0,0,44.55,21a4,4,0,0,0-3.3,1.84L39,21.08a7,7,0,0,1,5.85-2.94C48.63,18.14,50.74,20.37,50.74,23.1Zm10.13,1.52A21,21,0,1,0,20.44,34.67a4.89,4.89,0,0,1-1.17,5.21L13,46.17l-.23-.23.36-12.58L7,33V56H30l-.36-6.11-12.25.35,6.12-6.12A10.89,10.89,0,0,0,26,32.47a15,15,0,1,1,18.58,8.81A11,11,0,0,0,37,51.74V80h6V51.74A5,5,0,0,1,46.45,47,21.13,21.13,0,0,0,60.87,24.62Z" style="fill:#fff"/></svg>
